X:8
T:Ardara Lasses, The
R:highland
D:Altan: Harvest Storm
Z:id:hn-hf-8
M:C|
K:D
dcdB A<FFA|G<EEG FDD2|dcdB A<FFe|1 (3fga eg fddc:|2 (3fga eg fdde||
|:(3fed ad fdad|(3cBA eA fAeA|1 (3fed ad fdef|gbag fdde:|
[2 (3Bcd ce dfef|gbag (3fed ec||

